X: 43
T: PORCHER
M: 6/8
L: 1/8
Q:1/4=80
K:D 
|dAA/2G/2 FdA|A/2G/2FE/2G/2 G/2F3/2d|AA/2G/2F dAA/2G/2|FE/2G/2G/2F3/2EG|
FAB/2A/2 G/2A/2G/2F/2E|GFA B/2A/2G/2F3/2|EGF AB/2A/2G/2A/2|G/2F/2EG FAB/
2A/2|
G/2F3/2|
% Output from ABC2Win  Version 2.1 f on 18/01/99
